manjaro/static/img/package-upstream.svg

<svg version="1.1" viewBox="0 0 16 16" xmlns="http://www.w3.org/2000/svg">
 <defs>
  <style type="text/css">.ColorScheme-Text { color:#6e6e6e; } .ColorScheme-Highlight { color:#4285f4; } .ColorScheme-NeutralText { color:#ff9800; } .ColorScheme-PositiveText { color:#4caf50; } .ColorScheme-NegativeText { color:#f44336; }</style>
 </defs>
 <path class="ColorScheme-Text" d="m3 1c-0.554 0-0.8251 0.4754-1 1l-1 3v8c0 0.554 0.446 1 1 1h12c0.554 0 1-0.446 1-1v-8l-1-3c-0.175-0.5256-0.446-1-1-1zm0.6699 2h8.6601l0.334 1h-9.33zm3.3301 3h2v3h1.75l-2.75 3-2.75-3h1.75z" fill="currentColor"/>
 <rect x="3.3458" y="4.9152" width="9.8931" height="7.7676" fill="#6e6e6e"/>
</svg>

<?xml version="1.0" encoding="UTF-8" standalone="no"?>
<svg
   width="16"
   height="16"
   version="1.1"
   id="svg7"
   sodipodi:docname="package-upstream.svg"
   inkscape:version="1.2 (dc2aedaf03, 2022-05-15)"
   xmlns:inkscape="http://www.inkscape.org/namespaces/inkscape"
   xmlns:sodipodi="http://sodipodi.sourceforge.net/DTD/sodipodi-0.dtd"
   xmlns="http://www.w3.org/2000/svg"
   xmlns:svg="http://www.w3.org/2000/svg">
  <sodipodi:namedview
     id="namedview9"
     pagecolor="#ffffff"
     bordercolor="#666666"
     borderopacity="1.0"
     inkscape:showpageshadow="2"
     inkscape:pageopacity="0.0"
     inkscape:pagecheckerboard="0"
     inkscape:deskcolor="#d1d1d1"
     showgrid="false"
     inkscape:zoom="41.7193"
     inkscape:cx="14.765348"
     inkscape:cy="6.0044152"
     inkscape:window-width="1920"
     inkscape:window-height="1011"
     inkscape:window-x="0"
     inkscape:window-y="32"
     inkscape:window-maximized="1"
     inkscape:current-layer="svg7" />
  <defs
     id="defs3">
    <style
       id="current-color-scheme"
       type="text/css">
   .ColorScheme-Text { color:#6e6e6e; } .ColorScheme-Highlight { color:#4285f4; } .ColorScheme-NeutralText { color:#ff9800; } .ColorScheme-PositiveText { color:#4caf50; } .ColorScheme-NegativeText { color:#f44336; }
  </style>
    <linearGradient
       id="lg"
       y1="9.9084301"
       x2="25.431995"
       x1="34.76569"
       y2="28.426884"
       gradientTransform="matrix(0.9319351,0,0,1.0730361,-18.263733,6.0909258)"
       gradientUnits="userSpaceOnUse">
      <stop
         stop-color="#fff"
         stop-opacity="0"
         offset="0"
         id="stop1012" />
      <stop
         stop-color="#fff"
         stop-opacity=".27451"
         offset="1"
         id="stop1014" />
    </linearGradient>
  </defs>
  <path
     style="fill:currentColor"
     class="ColorScheme-Text"
     d="M 3,1 C 2.446,1 2.1749,1.4754 2,2 L 1,5 V 13 C 1,13.554 1.446,14 2,14 H 14 C 14.554,14 15,13.554 15,13 V 5 L 14,2 C 13.825,1.4744 13.554,1 13,1 Z M 3.6699,3 H 12.33 L 12.664,4 H 3.334 Z M 7,6 H 9 V 9 H 10.75 L 8,12 5.25,9 H 7 Z"
     id="path5" />
  <rect
     style="fill:#6e6e6e;fill-opacity:1"
     id="rect518"
     width="9.8930693"
     height="7.7676258"
     x="3.3458118"
     y="4.9151778" />
</svg>
